svgs/icons/lg/train.svg

<svg xmlns="http://www.w3.org/2000/svg" viewBox="0 0 24 24" enable-background="new 0 0 24 24"><path fill="#34363D" d="M17 18.42v-.996c1.188-.695 2-1.97 2-3.437v-7.991c0-2.198-1.8-3.996-4-3.996h-6c-2.2 0-4 1.798-4 3.996v7.991c0 1.467.812 2.743 2 3.437v.996l-3 3.58h2.561l2.555-3.003h5.768l2.555 3.003h2.561l-3-3.58zm-1-3.42c-.552 0-1-.448-1-1s.448-1 1-1 1 .448 1 1-.448 1-1 1zm-5.5-12h3c.275 0 .5.225.5.5s-.225.5-.5.5h-3c-.275 0-.5-.225-.5-.5s.225-.5.5-.5zm-3.5 4c0-.55.45-1 1-1h8c.55 0 1 .45 1 1v3c0 .55-.45 1-1 1h-8c-.55 0-1-.45-1-1v-3zm1 6c.552 0 1 .448 1 1s-.448 1-1 1-1-.448-1-1 .448-1 1-1z"/></svg>

<svg xmlns="http://www.w3.org/2000/svg" viewBox="0 0 24 24"><path fill="#34363D" d="M17 18.42v-.996c1.188-.695 2-1.97 2-3.437V5.996A4.01 4.01 0 0 0 15 2H9C6.8 2 5 3.798 5 5.996v7.991c0 1.467.812 2.743 2 3.437v.996L4 22h2.561l2.555-3.003h5.768L17.439 22H20l-3-3.58zM16 15a1 1 0 1 1 0-2 1 1 0 0 1 0 2zM10.5 3h3c.275 0 .5.225.5.5s-.225.5-.5.5h-3c-.275 0-.5-.225-.5-.5s.225-.5.5-.5zM7 7c0-.55.45-1 1-1h8c.55 0 1 .45 1 1v3c0 .55-.45 1-1 1H8c-.55 0-1-.45-1-1V7zm1 6a1 1 0 1 1 0 2 1 1 0 0 1 0-2z"/></svg>
